modules/coreui-icons-free/icons/compass.svg

<!-- Generated by IcoMoon.io -->
<svg version="1.1" xmlns="http://www.w3.org/2000/svg" width="24" height="24" viewBox="0 0 24 24">
<title>compass</title>
<path d="M14.129 9.995l-5.582-2.796c-0.147-0.075-0.32-0.119-0.504-0.119-0.621 0-1.125 0.504-1.125 1.125 0 0.183 0.044 0.356 0.122 0.509l-0.003-0.006 2.792 5.587 5.581 2.786c0.146 0.075 0.319 0.118 0.502 0.118 0.621 0 1.125-0.504 1.125-1.125 0-0.183-0.044-0.357-0.122-0.51l0.003 0.006zM10.947 13.177l-2.065-4.132 4.129 2.068 2.063 4.124z"></path>
<path d="M12 0.75c-6.213 0-11.25 5.037-11.25 11.25s5.037 11.25 11.25 11.25 11.25-5.037 11.25-11.25-5.037-11.25-11.25-11.25zM12.75 21.722v-2.831h-1.5v2.831c-4.724-0.359-8.507-4.085-8.955-8.784h2.954v-1.5h-2.982c0.277-4.874 4.134-8.79 8.983-9.159v3.112h1.5v-3.112c4.849 0.369 8.706 4.285 8.983 9.159h-2.985v1.5h2.956c-0.448 4.699-4.231 8.425-8.955 8.784z"></path>
</svg>

<svg xmlns="http://www.w3.org/2000/svg" width="24" height="24" viewBox="0 0 24 24"><path d="M14.129 9.995L8.547 7.199A1.125 1.125 0 007.04 8.714l-.003-.006 2.792 5.587 5.581 2.786a1.125 1.125 0 001.505-1.517l.003.006zm-3.182 3.182L8.882 9.045l4.129 2.068 2.063 4.124z"/><path d="M12 .75C5.787.75.75 5.787.75 12S5.787 23.25 12 23.25 23.25 18.213 23.25 12 18.213.75 12 .75zm.75 20.972v-2.831h-1.5v2.831a9.751 9.751 0 01-8.955-8.784h2.954v-1.5H2.267a9.75 9.75 0 018.983-9.159v3.112h1.5V2.279a9.75 9.75 0 018.983 9.159h-2.985v1.5h2.956a9.751 9.751 0 01-8.955 8.784z"/></svg>
